X:1
T:The flower song From the opera “carmen”66. Music by georges bizet
C:Bizet
%%score { 1 | ( 2 3 ) }
L:1/4
Q:1/4=100
M:4/4
I:linebreak $
K:Amin
V:1 treble 
L:1/8
V:2 bass 
V:3 bass 
V:1
"^Moderato" (!5!e2 !4!c!2!G !1!E !2!^D !1!E !5!B | !4!A4 G2) !1!G2 |"^Am’?""Dm" cc c2- cedA |$ %3
w: |||
"G7" B6 !4!c2 |"F" B!2!^G !1!A2- A"G"!5!d"B"!3!BA |"Em7" =G4-"Am7" GGBA |$ %6
w: |||
"A#dim" =G4-"G" G(!3!GBA |"C" [EG]6) !3!G!1!G |"Ab" _A2 AA (GA_BA) |"Bbm7" [_A_d]2 d4 !3!dc |$ %10
w: ||||
"Eb" _e2 _BB"Eb7" B2 c_d |"Ab" c2 c4 !2!c2 |"D7" cB d2- dcBc |$"C" g4 z ((!1!EFG | %14
w: |||F mf * *|
"F" B2 A2-"G7" A)G A>)G |!>(!"C" G6!>)! !1!G2 |$"C+" !2!^GG G2- GG c>B |"Am" (B2"Dm" A4) c2 | %18
w: |* mp|||
"Am" B2!<(! !1!A>c"Fm" e2!<)! d>c |!>(!"Am" (B2 A4)!>)! !4!AA |$ AG G2-"Cm6" G(!2!^F!1!GA) | %21
w: |||
"G" d4"Am7b5" (_ecG_E) |"G" G4"D7" A2 A>A |"B" [^DB]6 B2 |$"E" z !2!BBB B2"_cresc." B>B | %25
w: ||||
"C#m" ^c2 c4 cc |"A" ^cc c4 c>c |$"G" !4!d4- d!3!d d>d |!<(!"F7" _e4- e!3!e e>e!<)! | %29
w: ||||
"E" =e4-"F" e(dcd) |"E" =e4-"F" e(dcd) | %31
w: ||
V:2
 !1!!5![C,G,] G,2 !4!C, | z D, G, D, | !1!!5![A,,G,] E, [D,F,]2 |$ [G,,F,] D, [C,E,]2 | %4
 F,, C, F,2 | [E,D] B, [A,C]2 |$ [^A,^C]2 [B,D]2 | C G, C, z | [C_E]4 | [_B,F]2 !3!_A, !4!F, |$ %10
 [_E,G,]2 [E,_F]2 | [_A,C]2 _A,, _E, | ([=A,,^F,]2 [D,F,]2) |$ z/ G,,/C,/E,/ G,2 | %14
 (!1!F,2 [G,,F,]) D, | [C,E,] [C,E,]2 [C,E,] |$ [C,E,] [C,E,]2 [C,E,] | [C,E,]2 [D,F,]2 | %18
 [C,E,]2 (_A, [F,A,]) | [C,E,]2 [C,E,]2 |$ x2 [_E,A,C]2 | [D,G,B,] [G,B,D] [A,C]2 | B,2 C2 | %23
 z B,, ^F, B, |$ [E,^G,B,]3 [E,G,B,] | [^C,E,^G,]2 [C,E,G,]2 | A,, E, A,2 |$ [G,B,F]2 [G,B,D]2 | %28
 [F,A,_E] [F,A,E]2 [F,A,E] | [E,^G,B,]2 [F,A,]2 | [E,^G,B,]2 [F,A,]2 | %31
V:3
 x4 | B,,4 | x4 |$ x4 | x4 | x4 |$ x4 | x4 | x4 | x4 |$ x4 | x4 | x4 |$ x4 | x4 | x4 |$ x4 | x4 | %18
 x4 | x4 |$ x4 | x4 | z D,2 D, | x4 |$ x4 | x4 | x4 |$ x4 | x4 | x4 | x4 | %31

